X:1
T:The Bridge 
M:4/4
L:1/8
Q:C4=120
C:Paul Rosen
S:Copyright 2006, Paul Rosen
R:
K:A mixolidian
|:"A"ea2e a2ef|gfed cA3|ea2e a2ef|gfed "E"e2ee|
"A"ea2e a2ef|gfed cA3|"G"gfed cAEG |"A"Acdc A2 AA:|
"A"cdcA EGA2| cdcA cdcA|cdcA EGAc|"G"c/2d/2cAG "A"A2AA|
cdcA EGA2| cdef gfe2|"G"gfed cAEG |"A"Acdc A2 AA:|
